packages/vapor/resources/icons/svg/status-org_expiration.svg

<svg enable-background="new 0 0 528 528" height="528" viewBox="0 0 528 528" width="528" xmlns="http://www.w3.org/2000/svg"><path d="m524.998 495.531-84.997-165.274c-6.162-10.179-11.317-21.616-21.5-21.981v-.26c-.167-.005-.331-.016-.501-.016-10.518 0-15.737 11.654-22 22l-84.997 165c-7.146 12.141-2.19 33 22 33h169.995c24.191 0 29.147-20.328 22-32.469zm-84.997 10.726h-21.5v-.257h-22.501v-22h21.5v.257h22.501zm-21.5-44v-.257h-22.744l.732-88h21.011v.257h22.012l.732 88z"/><path d="m287.945 495 6.762-13.126c-9.956 1.384-20.118 2.126-30.455 2.126-121.642 0-220.252-98.609-220.252-220.252 0-121.642 98.61-220.251 220.252-220.251s220.252 98.61 220.252 220.251c0 23.404-3.665 45.949-10.433 67.107l26.688 50.039c17.432-35.236 27.241-74.917 27.241-116.894 0-145.803-118.197-264-264-264s-264 118.197-264 264 118.197 264 264 264c11.484 0 22.788-.766 33.883-2.195-13.597-5.664-15.682-21.046-9.938-30.805z"/><path d="m286 212.731v-102.731c0-12.15-9.85-22-22-22-12.151 0-22 9.85-22 22l-.375 102.901c-12.939 5.674-23.312 16.11-28.893 29.099-25.588 0-58.996 0-59.167 0-12.151 0-22 9.85-22 22s9.85 22 22 22h59.167c8.536 19.866 28.274 33.782 51.269 33.782 30.808 0 55.782-24.976 55.782-55.782-.001-22.994-13.917-42.732-33.783-51.269z"/></svg>

<?xml version="1.0" encoding="utf-8"?>
<!-- Generator: Adobe Illustrator 16.0.4, SVG Export Plug-In . SVG Version: 6.00 Build 0)  -->
<!DOCTYPE svg PUBLIC "-//W3C//DTD SVG 1.1//EN" "http://www.w3.org/Graphics/SVG/1.1/DTD/svg11.dtd">
<svg version="1.1" id="Layer_1" xmlns="http://www.w3.org/2000/svg" xmlns:xlink="http://www.w3.org/1999/xlink" x="0px" y="0px"
	 width="528px" height="528px" viewBox="0 0 528 528" enable-background="new 0 0 528 528" xml:space="preserve">
<g display="none">
	<line display="inline" fill="none" stroke="#B35047" x1="0" y1="22" x2="528" y2="22"/>
	<line display="inline" fill="none" stroke="#B35047" x1="0" y1="44" x2="528" y2="44"/>
	<line display="inline" fill="none" stroke="#B35047" x1="0" y1="66" x2="528" y2="66"/>
	<line display="inline" fill="none" stroke="#B35047" x1="0" y1="88" x2="528" y2="88"/>
	<line display="inline" fill="none" stroke="#B35047" x1="0" y1="110" x2="528" y2="110"/>
	<line display="inline" fill="none" stroke="#B35047" x1="0" y1="132" x2="528" y2="132"/>
	<line display="inline" fill="none" stroke="#B35047" x1="0" y1="374" x2="528" y2="374"/>
	<line display="inline" fill="none" stroke="#B35047" x1="0" y1="396" x2="528" y2="396"/>
	<line display="inline" fill="none" stroke="#B35047" x1="0" y1="418" x2="528" y2="418"/>
	<line display="inline" fill="none" stroke="#B35047" x1="0" y1="440" x2="528" y2="440"/>
	<line display="inline" fill="none" stroke="#B35047" x1="0" y1="462" x2="528" y2="462"/>
	<line display="inline" fill="none" stroke="#B35047" x1="0" y1="484" x2="528" y2="484"/>
	<line display="inline" fill="none" stroke="#B35047" x1="0" y1="506" x2="528" y2="506"/>
	<line display="inline" fill="none" stroke="#B35047" x1="22" y1="0" x2="22" y2="528"/>
	<line display="inline" fill="none" stroke="#B35047" x1="44" y1="0" x2="44" y2="528"/>
	<line display="inline" fill="none" stroke="#B35047" x1="66" y1="0" x2="66" y2="528"/>
	<line display="inline" fill="none" stroke="#B35047" x1="88" y1="0" x2="88" y2="528"/>
	<line display="inline" fill="none" stroke="#B35047" x1="110" y1="0" x2="110" y2="528"/>
	<line display="inline" fill="none" stroke="#B35047" x1="352" y1="0" x2="352" y2="528"/>
	<line display="inline" fill="none" stroke="#B35047" x1="374" y1="0" x2="374" y2="528"/>
	<line display="inline" fill="none" stroke="#B35047" x1="396" y1="0" x2="396" y2="528"/>
	<line display="inline" fill="none" stroke="#B35047" x1="418" y1="0" x2="418" y2="528"/>
	<line display="inline" fill="none" stroke="#B35047" x1="440" y1="0" x2="440" y2="528"/>
	<line display="inline" fill="none" stroke="#B35047" x1="462" y1="0" x2="462" y2="528"/>
	<line display="inline" fill="none" stroke="#B35047" x1="484" y1="0" x2="484" y2="528"/>
	<line display="inline" fill="none" stroke="#B35047" x1="506" y1="0" x2="506" y2="528"/>
	<g display="inline">
		<g>
			<line fill="none" stroke="#B35047" x1="0" y1="528" x2="528" y2="528"/>
			<line fill="none" stroke="#B35047" x1="0" y1="0" x2="0" y2="528"/>
		</g>
		<g>
			<line fill="none" stroke="#B35047" x1="0" y1="0" x2="528" y2="0"/>
			<line fill="none" stroke="#B35047" x1="528" y1="0" x2="528" y2="528"/>
		</g>
	</g>
	<line display="inline" fill="none" stroke="#B35047" x1="330" y1="0" x2="330" y2="528"/>
	<line display="inline" fill="none" stroke="#B35047" x1="308" y1="0" x2="308" y2="528"/>
	<line display="inline" fill="none" stroke="#B35047" x1="286" y1="0" x2="286" y2="528"/>
	<line display="inline" fill="none" stroke="#B35047" x1="264" y1="0" x2="264" y2="528"/>
	<line display="inline" fill="none" stroke="#B35047" x1="198" y1="0" x2="198" y2="528"/>
	<line display="inline" fill="none" stroke="#B35047" x1="176" y1="0" x2="176" y2="528"/>
	<line display="inline" fill="none" stroke="#B35047" x1="154" y1="0" x2="154" y2="528"/>
	<line display="inline" fill="none" stroke="#B35047" x1="132" y1="0" x2="132" y2="528"/>
	<line display="inline" fill="none" stroke="#B35047" x1="242" y1="0" x2="242" y2="528"/>
	<line display="inline" fill="none" stroke="#B35047" x1="220" y1="0" x2="220" y2="528"/>
	<line display="inline" fill="none" stroke="#B35047" x1="0" y1="154" x2="528" y2="154"/>
	<line display="inline" fill="none" stroke="#B35047" x1="0" y1="176" x2="528" y2="176"/>
	<line display="inline" fill="none" stroke="#B35047" x1="0" y1="198" x2="528" y2="198"/>
	<line display="inline" fill="none" stroke="#B35047" x1="0" y1="220" x2="528" y2="220"/>
	<line display="inline" fill="none" stroke="#B35047" x1="0" y1="242" x2="528" y2="242"/>
	<line display="inline" fill="none" stroke="#B35047" x1="0" y1="264" x2="528" y2="264"/>
	<line display="inline" fill="none" stroke="#B35047" x1="0" y1="286" x2="528" y2="286"/>
	<line display="inline" fill="none" stroke="#B35047" x1="0" y1="308" x2="528" y2="308"/>
	<line display="inline" fill="none" stroke="#B35047" x1="0" y1="330" x2="528" y2="330"/>
	<line display="inline" fill="none" stroke="#B35047" x1="0" y1="352" x2="528" y2="352"/>
</g>
<g display="none">
	
		<line display="inline" opacity="0.3" fill="none" stroke="#CC3333" enable-background="new    " x1="0.001" y1="33" x2="528.001" y2="33"/>
	
		<line display="inline" opacity="0.3" fill="none" stroke="#CC3333" enable-background="new    " x1="0.001" y1="55" x2="528.001" y2="55"/>
	
		<line display="inline" opacity="0.3" fill="none" stroke="#CC3333" enable-background="new    " x1="0.001" y1="77" x2="528.001" y2="77"/>
	
		<line display="inline" opacity="0.3" fill="none" stroke="#CC3333" enable-background="new    " x1="0.001" y1="99" x2="528.001" y2="99"/>
	
		<line display="inline" opacity="0.3" fill="none" stroke="#CC3333" enable-background="new    " x1="0.001" y1="121" x2="528.001" y2="121"/>
	
		<line display="inline" opacity="0.3" fill="none" stroke="#CC3333" enable-background="new    " x1="0.001" y1="143" x2="528.001" y2="143"/>
	
		<line display="inline" opacity="0.3" fill="none" stroke="#CC3333" enable-background="new    " x1="0.001" y1="385" x2="528.001" y2="385"/>
	
		<line display="inline" opacity="0.3" fill="none" stroke="#CC3333" enable-background="new    " x1="0.001" y1="407" x2="528.001" y2="407"/>
	
		<line display="inline" opacity="0.3" fill="none" stroke="#CC3333" enable-background="new    " x1="0.001" y1="429" x2="528.001" y2="429"/>
	
		<line display="inline" opacity="0.3" fill="none" stroke="#CC3333" enable-background="new    " x1="0.001" y1="451" x2="528.001" y2="451"/>
	
		<line display="inline" opacity="0.3" fill="none" stroke="#CC3333" enable-background="new    " x1="0.001" y1="473" x2="528.001" y2="473"/>
	
		<line display="inline" opacity="0.3" fill="none" stroke="#CC3333" enable-background="new    " x1="0.001" y1="495" x2="528.001" y2="495"/>
	
		<line display="inline" opacity="0.3" fill="none" stroke="#CC3333" enable-background="new    " x1="0.001" y1="517" x2="528.001" y2="517"/>
	
		<line display="inline" opacity="0.3" fill="none" stroke="#CC3333" enable-background="new    " x1="0.001" y1="165" x2="528.001" y2="165"/>
	
		<line display="inline" opacity="0.3" fill="none" stroke="#CC3333" enable-background="new    " x1="0.001" y1="187" x2="528.001" y2="187"/>
	
		<line display="inline" opacity="0.3" fill="none" stroke="#CC3333" enable-background="new    " x1="0.001" y1="209" x2="528.001" y2="209"/>
	
		<line display="inline" opacity="0.3" fill="none" stroke="#CC3333" enable-background="new    " x1="0.001" y1="231" x2="528.001" y2="231"/>
	
		<line display="inline" opacity="0.3" fill="none" stroke="#CC3333" enable-background="new    " x1="0.001" y1="253" x2="528.001" y2="253"/>
	
		<line display="inline" opacity="0.3" fill="none" stroke="#CC3333" enable-background="new    " x1="0.001" y1="275" x2="528.001" y2="275"/>
	
		<line display="inline" opacity="0.3" fill="none" stroke="#CC3333" enable-background="new    " x1="0.001" y1="297" x2="528.001" y2="297"/>
	
		<line display="inline" opacity="0.3" fill="none" stroke="#CC3333" enable-background="new    " x1="0.001" y1="319" x2="528.001" y2="319"/>
	
		<line display="inline" opacity="0.3" fill="none" stroke="#CC3333" enable-background="new    " x1="0.001" y1="341" x2="528.001" y2="341"/>
	
		<line display="inline" opacity="0.3" fill="none" stroke="#CC3333" enable-background="new    " x1="0.001" y1="363" x2="528.001" y2="363"/>
	<g display="inline" opacity="0.3">
		<line fill="none" stroke="#CC3333" x1="77" y1="0" x2="77" y2="528"/>
		<line fill="none" stroke="#CC3333" x1="99" y1="0" x2="99" y2="528"/>
		<line fill="none" stroke="#CC3333" x1="121" y1="0" x2="121" y2="528"/>
		<line fill="none" stroke="#CC3333" x1="143" y1="0" x2="143" y2="528"/>
		<line fill="none" stroke="#CC3333" x1="165" y1="0" x2="165" y2="528"/>
		<line fill="none" stroke="#CC3333" x1="451" y1="0" x2="451" y2="528"/>
		<line fill="none" stroke="#CC3333" x1="473" y1="0" x2="473" y2="528"/>
		<line fill="none" stroke="#CC3333" x1="495" y1="0" x2="495" y2="528"/>
		<line fill="none" stroke="#CC3333" x1="517" y1="0" x2="517" y2="528"/>
		<line fill="none" stroke="#CC3333" x1="55" y1="0" x2="55" y2="528"/>
		<line fill="none" stroke="#CC3333" x1="385" y1="0" x2="385" y2="528"/>
		<line fill="none" stroke="#CC3333" x1="363" y1="0" x2="363" y2="528"/>
		<line fill="none" stroke="#CC3333" x1="341" y1="0" x2="341" y2="528"/>
		<line fill="none" stroke="#CC3333" x1="319" y1="0" x2="319" y2="528"/>
		<line fill="none" stroke="#CC3333" x1="33" y1="0" x2="33" y2="528"/>
		<line fill="none" stroke="#CC3333" x1="407" y1="0" x2="407" y2="528"/>
		<line fill="none" stroke="#CC3333" x1="297" y1="0" x2="297" y2="528"/>
		<line fill="none" stroke="#CC3333" x1="275" y1="0" x2="275" y2="528"/>
		<line fill="none" stroke="#CC3333" x1="253" y1="0" x2="253" y2="528"/>
		<line fill="none" stroke="#CC3333" x1="231" y1="0" x2="231" y2="528"/>
		<line fill="none" stroke="#CC3333" x1="209" y1="0" x2="209" y2="528"/>
		<line fill="none" stroke="#CC3333" x1="187" y1="0" x2="187" y2="528"/>
		<line fill="none" stroke="#CC3333" x1="429" y1="0" x2="429" y2="528"/>
		<line fill="none" stroke="#CC3333" x1="10.008" y1="0" x2="10.008" y2="528"/>
	</g>
	
		<line display="inline" opacity="0.3" fill="none" stroke="#CC3333" enable-background="new    " x1="0.001" y1="11" x2="528.001" y2="11"/>
</g>
<path d="M524.998,495.531l-84.997-165.274c-6.162-10.179-11.317-21.616-21.5-21.981v-0.26C418.334,308.011,418.17,308,418,308
	c-10.518,0-15.737,11.654-22,22l-84.997,165c-7.146,12.141-2.19,33,22,33h169.995C527.189,528,532.145,507.672,524.998,495.531z
	 M440.001,506.257h-21.5V506H396v-22h21.5v0.257h22.501V506.257z M418.501,462.257V462h-22.744l0.732-88H417.5v0.257h22.012
	l0.732,88H418.501z"/>
<path d="M287.945,495l6.762-13.126c-9.956,1.384-20.118,2.126-30.455,2.126C142.61,484,44,385.391,44,263.748
	c0-121.642,98.61-220.251,220.252-220.251c121.642,0,220.252,98.61,220.252,220.251c0,23.404-3.665,45.949-10.433,67.107
	l26.688,50.039C518.191,345.658,528,305.977,528,264C528,118.197,409.803,0,264,0C118.197,0,0,118.197,0,264s118.197,264,264,264
	c11.484,0,22.788-0.766,33.883-2.195C284.286,520.141,282.201,504.759,287.945,495z"/>
<path d="M286,212.731V110c0-12.15-9.85-22-22-22c-12.151,0-22,9.85-22,22l-0.375,102.901c-12.939,5.674-23.312,16.11-28.893,29.099
	c-25.588,0-58.996,0-59.167,0c-12.151,0-22,9.85-22,22c0,12.15,9.85,22,22,22c0.146,0,30.376,0,59.167,0
	c8.536,19.866,28.274,33.782,51.269,33.782c30.808,0,55.782-24.976,55.782-55.782C319.782,241.006,305.866,221.268,286,212.731z"/>
</svg>
